src/categories-icons-sprite/categories/svg-cat-hobby-soap.svg

<svg width="33" height="30" viewBox="0 0 33 30" fill="none" xmlns="http://www.w3.org/2000/svg">
<path class="p-FFB64C" d="M32.9499 19.3813C32.9499 18.8407 32.5252 18.416 31.9846 18.416H0.965329C0.424681 18.416 0 18.8407 0 19.3813C0 25.2312 4.76866 30 10.6186 30H22.3313C28.1812 30 32.9499 25.2312 32.9499 19.3813Z" fill="#65B3E7"/>
<path class="p-FF9100" d="M32.9496 19.3813C32.9496 25.2312 28.1809 30 22.3309 30H16.4746V18.416H31.9842C32.5249 18.416 32.9496 18.8407 32.9496 19.3813Z" fill="#4D98CB"/>
<path class="p-FDE4E4" d="M22.3312 11.584H10.6185C6.8925 11.584 2.9707 14.6151 2.9707 18.3413V20.2719C2.9707 23.9981 6.8925 27.0293 10.6185 27.0293H22.3312C26.0573 27.0293 29.0885 23.9981 29.0885 20.2719V18.3413C29.0885 14.6151 26.0573 11.584 22.3312 11.584Z" fill="#B9DFFC"/>
<path class="p-FDD0D0" d="M25.2273 16.4106C25.2273 18.013 23.9339 19.3066 22.3313 19.3066H10.6186C9.01607 19.3066 7.72266 18.013 7.72266 16.4106C7.72266 15.87 8.14734 15.4453 8.68799 15.4453C9.22863 15.4453 9.65331 15.87 9.65331 16.4106C9.65331 16.9512 10.078 17.376 10.6186 17.376H22.3313C22.872 17.376 23.2966 16.9512 23.2966 16.4106C23.2966 15.87 23.7213 15.4453 24.262 15.4453C24.8026 15.4453 25.2273 15.87 25.2273 16.4106Z" fill="#5FBEFF"/>
<path class="p-E0F4FF" d="M8.68798 9.6533C7.09107 9.6533 5.79199 8.35423 5.79199 6.75732C5.79199 5.1604 7.09107 3.86133 8.68798 3.86133C10.2849 3.86133 11.584 5.1604 11.584 6.75732C11.584 8.35423 10.2849 9.6533 8.68798 9.6533Z" fill="#B9DFFC"/>
<path class="p-BBDCFF" d="M24.2622 5.79198C22.6653 5.79198 21.3662 4.4929 21.3662 2.89599C21.3662 1.29908 22.6653 0 24.2622 0C25.8591 0 27.1582 1.29908 27.1582 2.89599C27.1582 4.4929 25.8591 5.79198 24.2622 5.79198Z" fill="#65B3E7"/>
<path class="p-E0F4FF" d="M14.5444 3.86132C15.0776 3.86132 15.5098 3.42913 15.5098 2.89599C15.5098 2.36286 15.0776 1.93066 14.5444 1.93066C14.0113 1.93066 13.5791 2.36286 13.5791 2.89599C13.5791 3.42913 14.0113 3.86132 14.5444 3.86132Z" fill="#B9DFFC"/>
<path class="p-BBDCFF" d="M20.4009 9.65331C20.934 9.65331 21.3662 9.22112 21.3662 8.68799C21.3662 8.15485 20.934 7.72266 20.4009 7.72266C19.8677 7.72266 19.4355 8.15485 19.4355 8.68799C19.4355 9.22112 19.8677 9.65331 20.4009 9.65331Z" fill="#65B3E7"/>
<path class="p-FCCED3" d="M29.9788 18.3413V20.2719C29.9788 23.9981 26.057 27.0293 22.3309 27.0293H16.4746V11.584H22.3309C26.057 11.584 29.9788 14.6151 29.9788 18.3413Z" fill="#A1D1FD"/>
<path class="p-FAAAAA" d="M25.2269 16.4106C25.2269 18.013 23.9335 19.3066 22.3309 19.3066H16.4746V17.376H22.3309C22.8716 17.376 23.2963 16.9512 23.2963 16.4106C23.2963 15.87 23.721 15.4453 24.2616 15.4453C24.8022 15.4453 25.2269 15.87 25.2269 16.4106Z" fill="#58ADE5"/>
</svg>

<svg width="33" height="30" fill="none" xmlns="http://www.w3.org/2000/svg"><path class="p-FFB64C" d="M32.95 19.381a.956.956 0 00-.965-.965H.965a.956.956 0 00-.965.965C0 25.231 4.769 30 10.619 30H22.33c5.85 0 10.619-4.769 10.619-10.619z" fill="#65B3E7"/><path class="p-FF9100" d="M32.95 19.381C32.95 25.231 28.18 30 22.33 30h-5.855V18.416h15.51c.54 0 .965.425.965.965z" fill="#4D98CB"/><path class="p-FDE4E4" d="M22.331 11.584H10.618c-3.726 0-7.647 3.031-7.647 6.757v1.93c0 3.727 3.921 6.758 7.647 6.758h11.713a6.765 6.765 0 006.758-6.757v-1.93a6.765 6.765 0 00-6.758-6.758z" fill="#B9DFFC"/><path class="p-FDD0D0" d="M25.227 16.41a2.892 2.892 0 01-2.896 2.897H10.62a2.892 2.892 0 01-2.896-2.896c0-.541.424-.966.965-.966.54 0 .965.425.965.966 0 .54.425.965.966.965H22.33c.541 0 .966-.425.966-.965 0-.541.424-.966.965-.966.54 0 .965.425.965.966z" fill="#5FBEFF"/><path class="p-E0F4FF" d="M8.688 9.653a2.9 2.9 0 01-2.896-2.896 2.9 2.9 0 012.896-2.896 2.9 2.9 0 012.896 2.896 2.9 2.9 0 01-2.896 2.896z" fill="#B9DFFC"/><path class="p-BBDCFF" d="M24.262 5.792a2.9 2.9 0 01-2.896-2.896A2.9 2.9 0 0124.262 0a2.9 2.9 0 012.896 2.896 2.9 2.9 0 01-2.896 2.896z" fill="#65B3E7"/><path class="p-E0F4FF" d="M14.544 3.861a.965.965 0 100-1.93.965.965 0 000 1.93z" fill="#B9DFFC"/><path class="p-BBDCFF" d="M20.4 9.653a.965.965 0 100-1.93.965.965 0 000 1.93z" fill="#65B3E7"/><path class="p-FCCED3" d="M29.979 18.341v1.93c0 3.727-3.922 6.758-7.648 6.758h-5.856V11.584h5.856c3.726 0 7.648 3.031 7.648 6.757z" fill="#A1D1FD"/><path class="p-FAAAAA" d="M25.227 16.41a2.892 2.892 0 01-2.896 2.897h-5.856v-1.931h5.856c.54 0 .965-.425.965-.965 0-.541.425-.966.966-.966.54 0 .965.425.965.966z" fill="#58ADE5"/></svg>
